Dominus_Funeral/22/apps/lastfm.svg

<svg xmlns="http://www.w3.org/2000/svg" width="24" height="24"><defs><linearGradient id="a"><stop offset="0" stop-color="#2c89a0"/><stop offset="1" stop-color="#2c89a0" stop-opacity="0"/></linearGradient></defs><path d="M7.864 5.23a6.568 6.568 0 0 0-6.152 3.714 6.845 6.845 0 0 0 4.85 9.755 6.375 6.375 0 0 0 4.296-.86c.83-.554 1.745-1.384 1.745-1.607 0-.11-.193-.554-.415-1.108l-.388-.887-.222.332c-.388.638-1.358 1.497-2.078 1.858-.61.276-.887.332-1.94.332-1.109 0-1.303-.028-1.995-.388-.97-.471-1.83-1.385-2.273-2.356-.278-.637-.333-.886-.333-2.05 0-1.22.028-1.414.388-2.107C3.763 9 4.65 8.057 5.454 7.64c.83-.444 2.05-.61 2.965-.415 1.774.388 2.826 1.33 3.658 3.325 2.023 4.739 2.633 6.042 3.242 6.735.915 1.025 1.664 1.33 3.299 1.33 1.136 0 1.385-.028 2.078-.36 1.552-.749 2.3-1.968 2.3-3.687 0-1.995-.83-2.854-3.685-3.824-2.024-.665-2.44-1.025-2.44-2.023 0-.998.638-1.636 1.664-1.636.609 0 .97.14 1.468.638.25.222.416.305.638.25.415-.11 1.136-.582 1.136-.749 0-.304-1.247-1.44-1.857-1.662a3.796 3.796 0 0 0-3.963.831c-.638.692-.887 1.385-.887 2.383 0 1.885.914 2.827 3.797 3.88 1.884.637 2.273.999 2.273 2.051 0 1.247-1.026 2.134-2.495 2.134-.86 0-1.33-.166-1.829-.637-.443-.471-.72-.998-2.162-4.407-1.358-3.243-1.745-3.99-2.66-4.85A6.392 6.392 0 0 0 7.836 5.23z" fill="#1a1a1a"/></svg>

<?xml version="1.0" encoding="UTF-8" standalone="no"?>
<svg
   xmlns:dc="http://purl.org/dc/elements/1.1/"
   xmlns:cc="http://creativecommons.org/ns#"
   xmlns:rdf="http://www.w3.org/1999/02/22-rdf-syntax-ns#"
   xmlns:svg="http://www.w3.org/2000/svg"
   xmlns="http://www.w3.org/2000/svg"
   xmlns:sodipodi="http://sodipodi.sourceforge.net/DTD/sodipodi-0.dtd"
   xmlns:inkscape="http://www.inkscape.org/namespaces/inkscape"
   width="24"
   height="24"
   version="1.1"
   id="svg11"
   sodipodi:docname="lastfm.svg"
   inkscape:version="0.92.4 (5da689c313, 2019-01-14)">
  <metadata
     id="metadata15">
    <rdf:RDF>
      <cc:Work
         rdf:about="">
        <dc:format>image/svg+xml</dc:format>
        <dc:type
           rdf:resource="http://purl.org/dc/dcmitype/StillImage" />
        <dc:title></dc:title>
      </cc:Work>
    </rdf:RDF>
  </metadata>
  <sodipodi:namedview
     pagecolor="#ffffff"
     bordercolor="#666666"
     borderopacity="1"
     objecttolerance="10"
     gridtolerance="10"
     guidetolerance="10"
     inkscape:pageopacity="0"
     inkscape:pageshadow="2"
     inkscape:window-width="1138"
     inkscape:window-height="480"
     id="namedview13"
     showgrid="false"
     inkscape:zoom="9.8333333"
     inkscape:cx="1.0677966"
     inkscape:cy="12"
     inkscape:window-x="0"
     inkscape:window-y="25"
     inkscape:window-maximized="0"
     inkscape:current-layer="svg11" />
  <defs
     id="defs7">
    <linearGradient
       id="a">
      <stop
         offset="0"
         stop-color="#2c89a0"
         id="stop2" />
      <stop
         offset="1"
         stop-color="#2c89a0"
         stop-opacity="0"
         id="stop4" />
    </linearGradient>
  </defs>
  <path
     d="m 7.864,5.23 a 6.568,6.568 0 0 0 -6.152,3.714 6.845,6.845 0 0 0 4.85,9.755 6.375,6.375 0 0 0 4.296,-0.86 c 0.83,-0.554 1.745,-1.384 1.745,-1.607 0,-0.11 -0.193,-0.554 -0.415,-1.108 L 11.8,14.237 11.578,14.569 C 11.19,15.207 10.22,16.066 9.5,16.427 8.89,16.703 8.613,16.759 7.56,16.759 6.451,16.759 6.257,16.731 5.565,16.371 4.595,15.9 3.735,14.986 3.292,14.015 3.014,13.378 2.959,13.129 2.959,11.965 2.959,10.745 2.987,10.551 3.347,9.858 3.763,9 4.65,8.057 5.454,7.64 6.284,7.196 7.504,7.03 8.419,7.225 c 1.774,0.388 2.826,1.33 3.658,3.325 2.023,4.739 2.633,6.042 3.242,6.735 0.915,1.025 1.664,1.33 3.299,1.33 1.136,0 1.385,-0.028 2.078,-0.36 1.552,-0.749 2.3,-1.968 2.3,-3.687 0,-1.995 -0.83,-2.854 -3.685,-3.824 -2.024,-0.665 -2.44,-1.025 -2.44,-2.023 0,-0.998 0.638,-1.636 1.664,-1.636 0.609,0 0.97,0.14 1.468,0.638 0.25,0.222 0.416,0.305 0.638,0.25 0.415,-0.11 1.136,-0.582 1.136,-0.749 0,-0.304 -1.247,-1.44 -1.857,-1.662 a 3.796,3.796 0 0 0 -3.963,0.831 c -0.638,0.692 -0.887,1.385 -0.887,2.383 0,1.885 0.914,2.827 3.797,3.88 1.884,0.637 2.273,0.999 2.273,2.051 0,1.247 -1.026,2.134 -2.495,2.134 -0.86,0 -1.33,-0.166 -1.829,-0.637 -0.443,-0.471 -0.72,-0.998 -2.162,-4.407 -1.358,-3.243 -1.745,-3.99 -2.66,-4.85 A 6.392,6.392 0 0 0 7.836,5.23 Z"
     id="path9"
     inkscape:connector-curvature="0"
     style="fill:#1a1a1a" />
</svg>
